X:1
T:The Nightingale
T:William Byrd (c.1540-1623)
T:The Nightingale
T:© Choral Public Domain Library 2010
T:© Choral Public Domain Library 2010
T:© Choral Public Domain Library 2010
T:© Choral Public Domain Library 2010
C:William Byrd (c.1540-1623)
Z:© Choral Public Domain Library 2010
%%score [ 1 2 3 ]
L:1/8
M:4/4
K:C
V:1 treble nm="Soprano" snm="S."
V:2 treble nm="Alto" snm="A."
V:3 treble-8 transpose=-12 nm="Tenor" snm="T."
V:1
 [Df]2 |[M:4/2] z16 | G4 d6 e2 d2 A2 | BcdB c2 d2 B4 z2 A2 | B3 c dB c4 B2 A4 | z2 G2 B4 ^c4 d4 | %6
w: ||The Night- in- gale so|plea- * * sant and so gay, so|pleas- * * ant and so gay,|in green- wood groves,|
 z2 B2 A3 c B2 G2 A4 | G2 G2 ^F4 G4 z4 | z2 B2 A3 c B2 G2 d4 | B4 z4 z4 z2 A2 | %10
w: de- lights to make his dwell-|ing, his dwell- ing,|de- lights to make his dwell-|ing, in|
 B2 EF GABc d2 B2 e4 | c4 B2 G2 c4 A4 | G4 z4 z2 E2 G2 A2 | Bc d4 ^c2 d8 | z2 d2 B3 A G4 z4 | %15
w: fields to _ _ _ _ _ fly, to fly,|chant- ing his roun- de-|lay, chant- ing his|roun- * * de- lay,|at li- ber- ty,|
 z2 d2 B2 ^c2 d2 A2 =c4- | c2 B2 A4 G4 z2 G2 | E2 ^F2 G2 D2 E=F G4 ^F2 | G8 z2 d4 e2- | %19
w: a- gainst the Cage re- bell-|* * * ing, a-|gainst the Cage re- bell- * * *|ing. But my|
 e2 d2 B2 d4 c2 A4 | B4 c2 d3 c B2 A2 G2 | ^F4 G4 z2 B2 d4- | d2 c2 B3 A G3 F E4 | %23
w: _ poor heart, my poor heart,|with sor- * rows _ ov- er|swell- ing, with sor-|* rows ov- er _ _ swell-|
 ^F8 z2 A2 D2 =F2 | E4 z2 A3 A ^G2 A2 c2 | B4 z4 z2 d3 d ^c2 | d2 f2 e2 A3 A G2 A2 d2 | %27
w: ing, through bond- age|vile, bind- ing my free- dom|short, bind- ing my|free- dom short, bind- ing my free- dom|
 ^c4 z2 B2 =c3 B AG c2- | c2 B2 A4 z2 G2 c3 B | AG d4 c2 B4 z2 c2 | B2 A2 c2 G4 A3 G G2- | %31
w: short, no plea- * * * *|* sure takes, no plea- *|* * * sure takes, in|these his sports ex- cel- * *|
 G2 ^F2 G2 D2 E2 =F2 G2 F2 | A2 G4 F2 ED G4 ^F2 | z2 G2 A2 B2 c2 G2 A4 | G2 G2 c4 B4 z2 A2 | %35
w: * * ling, nor in his song re-|ceiv- eth no com- * * fort,|nor in his song re- ceiv-|eth no com- fort, nor|
 B2 c2 d2 A4 c4 G2 | B2 A4 ^G2 A4 z2 =G2 | A2 B2 c2 G2 B4 A4 | z2 G2 A2 B2 c2 G2 B4 | %39
w: in his song re- ceiv- eth|no com- * fort, nor|in his song re- ceiv- eth,|nor in his song re- ceiv-|
 A2 G3 ^F/E/ F2 G4 G4 | F8 | !fermata!E16 |] %42
w: eth no com- * * fort, no|com-|fort.|
V:2
 [G,B]2 |[M:4/2] D4 G6 A2 G2 D2 | E^FGE F2 G2 D2 G4 F2 | G4 z2 D2 E^FGE F4- | %4
w: |The Night- in- gale so|pleas- * * ant and so gay, and so|gay, so pleas- * * ant and|
 F2 G2 ^F2 A3 G G4 F2 | G4 z2 D2 E4 ^F4 | G4 z4 z2 E2 D3 F | E2 C2 D4 G,4 C2 E2- | %8
w: _ so gay, and _ so _|gay, in green- wood|groves, de- lights to|make his dwell- ing, de- lights|
 ED G4 ^F2 G2 E2 D4 | z2 G,2 B,2 G,A, B,CDE ^F2 D2 | G4 z4 z2 D2 E2 A,B, | %11
w: _ to make his dwell- * ing,|in fields to _ _ _ _ _ fly, to|fly, in fields to _|
 CDEF G2 E2 A2 A,2 C2 D2 | E^F G4 F2 G4 z2 D2 | G,2 B,2 A,4 z2 A2 ^F3 E | D4 z2 G2 E3 D C2 G2 | %15
w: _ _ _ _ fly, to fly, chant- ing his|roun- * * de- lay, his|roun- de- lay, at li- ber-|ty, at li- ber- ty, a-|
 E2 ^F2 G2 E2 =F6 E2 | D4 z2 D2 B,2 ^C2 D2 G,2 | C6 B,2 A,8 | G,16 | z2 G4 B4 A2 ^F4 | %20
w: gainst the Cage re- bell- *|ing, a- gainst the Cage re-|bell- * *|ing.|But my poor heart,|
 z2 G4 A4 G2 E4 | z2 D4 E4 D2 B,2 D2 | F3 E D2 D2 E4 ^C4 | z2 D2 A,2 _B,2 A,4 z2 D2- | %24
w: but my poor heart,|but my poor heart, with|sor- rows ov- er swell- ing,|through bond- age vile, bind-|
 DD ^C2 D2 A,2 B,4 z4 | z2 E3 E A,2 D4 F2 E2 | z2 D3 D ^C2 D4 F4 | E8 z2 E2 F3 E | DC G4 F2 E8 | %29
w: * ing my free- dom short,|bind- ing my free- dom short,|bind- ing my free- dom|short, no plea- *|* * * sure takes,|
 z2 G2 F2 E2 G2 D2 E4 | D2 F2 E4 D2 F2 E2 D2- | DC C4 B,2 C4 z4 | z2 C2 B,2 A,2 C2 G,2 A,4 | %33
w: in these his sports ex- cel-|ling, in these his sports ex- cel-|* * * * ling,|in these his sports ex- cel-|
 G,2 G,2 D4 C4 z4 | z2 D2 E2 F2 G2 D2 F4 | E4 D2 E2 F4 E4 | z2 C2 D2 E2 F2 C2 E4 | %37
w: ling, ex- cel- ling,|nor in his song re- ceiv-|eth no _ com- fort,|nor in his song re- ceiv-|
 D4 z4 z2 B,2 C2 D2 | E2 C2 F4 E4 z2 G,2 | A,2 B,2 C2 A,2 E4 D2 C2- | C2 B,A, B,4 | !fermata!C16 |] %42
w: eth, nor in his|song re- ceiv- eth, nor|in his song re- ceiv- eth no|_ com- * *|fort|
V:3
 [Cg]2 |[M:4/2] z16 | z16 | z8 G4 d4- | d2 e2 d2 A2 BcdB c2 d2 | G8 z4 z2 D2 | E4 ^F4 G4 z4 | %7
w: |||The Night-|* in- gale so pleas- * * ant and so|gay, in|green- wood groves,|
 z8 z2 B2 A3 c | B2 G2 d4 G4 z2 ^F2 | G2 EF GABc d2 G2 d4 | z4 e4 d2 G2 c4 | A4 G4 z8 | %12
w: de- lights to|make his dwell- ing, in|fields to _ _ _ _ _ fly, to fly,|chant- ing his rou-|de- lay,|
 z2 B2 c2 d2 e^f g4 f2 | g2 d2 e3 e d4 z2 d2 | B3 A G4 z2 c2 A2 B2 | c2 d2 G2 A2 D4 z2 A2 | %16
w: chant- ing his roun- * * de-|lay, his roun- de- lay, at|li- ber- ty, a- gainst the|Cage re- bell- * ing, a-|
 ^F2 G2 A2 D2 E4 D2 E2 | C3 D EF G2 C4 D4 | z2 d4 e4 d2 B2 c2- | c2 B2 G4 z4 z2 d2- | %20
w: gainst the Cage re- bell- ing, re-|bell- * * * * * ing.|But my poor heart, my|_ poor heart, but|
 d2 e4 d2 B4 c4 | d3 c B2 c2 G4 G4 | z2 C2 G3 F E2 E2 A4 | D16 | z2 A2 D2 F2 E4 z2 A2- | %25
w: _ my poor heart, with|sor- rows ov- er swell- ing,|with sor- rows ov- er swell-|ing,|through bond- age vile, bind-|
 AA ^G2 A2 c2 B4 A4 | F2 D2 A3 A F2 _B2 A2 D2 | A6 E2 A8 | z4 z2 A2 c3 B AG c2- | %29
w: * ing my free- dom short, my|free- dom short, my free- dom short, my|free- dom short,|no plea- * * * *|
 c2 B2 A2 A2 G2 G2 C4 | z4 z2 c2 B2 A2 c2 G2 | A4 G4 z2 F2 E2 D2 | F2 C2 D4 C4 z2 c2 | %33
w: * sure takes, no plea- sure takes,|in these his sports ex-|cell- ing, in these his|sports ex- cell- ing, nor|
 d2 e2 f2 d2 e4 d2 c2- | c2 B2 A4 G4 z4 | z2 A2 B2 c2 d2 A2 c4 | G2 A2 B4 A4 z2 E2 | %37
w: in his song re- ceiv- eth no|_ com- * fort,|nor in his song re- ceiv-|eth no com- fort, nor|
 F2 G2 A2 E2 G4 F2 F2 | E4 D4 z2 C2 D2 E2 | F2 E2 A4 G6 E2 | D8 | !fermata!C16 |] %42
w: in his song re- ceiv- eth no|com- fort, nor in his|song re- ceiv- eth no|com-|fort.|

